public/img/icon-github.svg

<svg width="20" height="20" viewBox="0 0 20 20" fill="none" xmlns="http://www.w3.org/2000/svg">
<g clip-path="url(#clip0_7_1273)">
<path d="M7.50008 15.8334C3.33341 17.0834 3.33341 13.75 1.66675 13.3334M13.3334 18.3334V15.1084C13.3647 14.711 13.311 14.3115 13.1759 13.9365C13.0409 13.5615 12.8275 13.2195 12.5501 12.9334C15.1667 12.6417 17.9167 11.65 17.9167 7.10003C17.9165 5.93655 17.469 4.81769 16.6667 3.97503C17.0466 2.95712 17.0198 1.83199 16.5917 0.833363C16.5917 0.833363 15.6084 0.541696 13.3334 2.0667C11.4234 1.54905 9.41007 1.54905 7.50008 2.0667C5.22508 0.541696 4.24175 0.833363 4.24175 0.833363C3.81373 1.83199 3.78687 2.95712 4.16675 3.97503C3.35852 4.82395 2.91052 5.95291 2.91675 7.12503C2.91675 11.6417 5.66675 12.6334 8.28341 12.9584C8.00925 13.2417 7.7978 13.5795 7.66284 13.95C7.52788 14.3204 7.47242 14.7151 7.50008 15.1084V18.3334" stroke="#B2B2B2" stroke-width="2.5" stroke-linecap="round" stroke-linejoin="round"/>
</g>
<defs>
<clipPath id="clip0_7_1273">
<rect width="20" height="20" fill="white"/>
</clipPath>
</defs>
</svg>

<svg xmlns="http://www.w3.org/2000/svg" width="20" height="20" fill="none" viewBox="0 0 20 20"><g clip-path="url(#a)"><path stroke="#B2B2B2" stroke-linecap="round" stroke-linejoin="round" stroke-width="2.5" d="M7.5 15.833c-4.167 1.25-4.167-2.083-5.833-2.5m11.666 5v-3.225a2.8 2.8 0 0 0-.783-2.175c2.617-.291 5.367-1.283 5.367-5.833a4.53 4.53 0 0 0-1.25-3.125 4.22 4.22 0 0 0-.075-3.142s-.984-.291-3.259 1.234a11.15 11.15 0 0 0-5.833 0C5.225.542 4.242.833 4.242.833a4.22 4.22 0 0 0-.075 3.142 4.53 4.53 0 0 0-1.25 3.15c0 4.517 2.75 5.508 5.366 5.833a2.8 2.8 0 0 0-.783 2.15v3.225"/></g><defs><clipPath id="a"><path fill="#fff" d="M0 0h20v20H0z"/></clipPath></defs></svg>
